_uploads/kickstarter-logo.svg

<svg height="127" viewBox="0 0 593 127" width="593" xmlns="http://www.w3.org/2000/svg"><g transform="translate(47 37)"><path d="m454 13.9133333v27.2133334c0 6.5 5.232558 11.8733333 11.598837 11.8733333 5.232558 0 9.331396-3.2066667 10.813954-7.8l1.22093 2.1666667c2.180232 3.64 6.017442 5.6333333 9.941861 5.6333333 6.366279 0 11.424418-5.0266667 11.424418-11.44 0-2.1666667-.523256-4.2466667-1.744186-6.1533333l-4.534884-7.1933334c3.313953-2.5133333 5.319768-6.5 5.319768-11.3533333 0-8.92666667-7.151163-15.86-16.30814-15.86h-15.087209c-8.197674 0-12.645349 4.42-12.645349 12.9133333"/><path d="m450 43.0359533c0-4.9813915-3.207188-8.7392834-7.627907-9.6132117 1.993657-1.3108925 3.207188-3.4957134 3.207188-6.3796769s-1.12685-5.0687844-3.207188-6.379677c4.5074-.8739283 7.627907-4.5444273 7.627907-9.6132117 0-5.59314144-4.5074-10.050176-9.968287-10.050176h-18.20296c-8.321353 0-12.828753 4.45703456-12.828753 12.9341395v26.1304575c0 8.5644978 4.5074 12.9341395 12.828753 12.9341395h18.20296c5.460887.0873928 9.968287-4.3696417 9.968287-9.9627832"/><path d="m395.411321 41.3v-17.94c5.815094-.26 10.588679-5.1133333 10.588679-11.18 0-6.24-5.033962-11.18-11.196226-11.18h-23.607548c-6.162264 0-11.196226 4.85333333-11.196226 11.18 0 6.0666667 4.773585 10.8333333 10.588679 11.18v17.94c0 6.4133333 5.467925 11.7 12.237736 11.7 7.203774 0 12.584906-5.2866667 12.584906-11.7"/><path d="m314 13.9133333v27.2133334c0 6.5 5.232558 11.8733333 11.598837 11.8733333 5.232558 0 9.331396-3.2066667 10.813954-7.8l1.22093 2.1666667c2.180232 3.64 6.017442 5.6333333 9.941861 5.6333333 6.366279 0 11.424418-5.0266667 11.424418-11.44 0-2.1666667-.523256-4.2466667-1.744186-6.1533333l-4.534884-7.1933334c3.313953-2.5133333 5.319768-6.5 5.319768-11.3533333 0-8.92666667-7.151163-15.86-16.30814-15.86h-15.087209c-8.110465 0-12.645349 4.42-12.645349 12.9133333"/><path d="m284.930757 42.9602649c2.941075 6.1125828 7.09318 9.0397351 12.196808 9.0397351 9.169232 0 15.656897-8.3509934 11.677796-17.7350994l-10.639769-24.79470194c-2.595065-6.11258276-6.487664-9.47019866-13.148333-9.47019866-6.574166 0-10.466764 3.3576159-13.148332 9.47019866l-10.639769 24.79470194c-4.065603 9.384106 2.508563 17.7350994 11.591293 17.7350994 5.017126 0 9.169232-2.9271523 12.110306-9.0397351"/><path d="m254.391305 41.3v-17.94c5.826086-.26 10.608695-5.1133333 10.608695-11.18 0-6.24-5.043478-11.18-11.217392-11.18h-23.565216c-6.173914 0-11.217392 4.85333333-11.217392 11.18 0 6.0666667 4.782609 10.8333333 10.608695 11.18v17.94c0 6.4133333 5.478262 11.7 12.26087 11.7 7.043478 0 12.52174-5.2866667 12.52174-11.7"/><path d="m220 36.0888158c0-5.2302631-2.63048-8.8914474-6.576201-12.3782895l-3.244258-2.8766447c4.734864-.6973685 7.89144-3.8355264 7.89144-8.4555921 0-7.75822371-6.225469-12.3782895-19.377871-12.3782895-12.889353 0-20.430062 6.4506579-20.430062 16.649671 0 5.2302632 2.718163 8.8042763 6.663883 12.3782895l3.156576 2.8766447h-.087682c-5.87474 0-9.995825 3.3996711-9.995825 8.7171053 0 7.6710526 6.488518 12.3782895 20.34238 12.3782895 13.590814 0 21.65762-6.537829 21.65762-16.9111842"/><path d="m175 40.3574105c0-2.414546-.702804-4.7428581-2.196261-6.8124688l-5.622431-7.6748068 5.622431-7.6748067c1.493457-1.9833769 2.196261-4.3979229 2.196261-6.8124688 0-6.38129998-5.358878-11.29662562-11.684112-11.29662562-3.689719 0-7.37944 1.81090945-9.663552 4.91532564l-2.723364 3.79428643c-1.054206-5.08779318-5.534579-8.79584585-11.24486-8.79584585-6.588785 0-11.684112 5.17402699-11.684112 11.5553269v28.8883174c0 6.3812999 5.183177 11.5553269 11.684112 11.5553269 5.62243 0 10.014953-3.4493513 11.15701-8.4509107l2.459813 3.4493513c2.284112 3.2768837 6.061682 5.0015594 9.751401 5.0015594 6.588786.0862338 11.947664-5.2602607 11.947664-11.6415607"/><path d="m124 37.7086093c0-5.5099338-2.74464-9.384106-8.233918-11.7086093 5.489278-2.3245033 8.233918-6.1125828 8.233918-11.7086093 0-8.35099335-6.947369-14.2913907-18.097466-14.2913907-14.9239767 0-25.902534 11.1059602-25.902534 26s10.9785573 26 25.902534 26c11.150097 0 18.097466-5.9403973 18.097466-14.2913907"/><path d="m62.5430488 0c-6.9683604 0-12.5430488 5.70099668-12.5430488 12.4385382v27.1229236c0 6.8239203 5.5746884 12.4385382 12.4559442 12.4385382 7.0554649 0 12.5430488-5.7009967 12.5430488-12.4385382v-27.1229236c.0871045-6.73754152-5.4875839-12.4385382-12.4559442-12.4385382"/><path d="m47 40.3574105c0-2.414546-.7014925-4.7428581-2.1921642-6.8124688l-5.6119403-7.6748068 5.6119403-7.6748067c1.4906717-1.9833769 2.1921642-4.3979229 2.1921642-6.8124688 0-6.38129998-5.3488806-11.29662562-11.6623134-11.29662562-3.6828358 0-7.3656717 1.81090945-9.6455224 4.91532564l-2.8059702 3.79428643c-1.0522388-5.08779318-5.5242537-8.79584585-11.2238806-8.79584585-6.57649251 0-11.6623134 5.17402699-11.6623134 11.5553269v28.8883174c0 6.3812999 5.17350746 11.5553269 11.6623134 11.5553269 5.6119403 0 9.9962687-3.4493513 11.1361941-8.4509107l2.4552239 3.4493513c2.2798507 3.2768837 6.0503731 5.0015594 9.7332089 5.0015594 6.6641791.0862338 12.0130597-5.2602607 12.0130597-11.6415607"/></g></svg>

<?xml version="1.0" encoding="UTF-8"?>
<svg width="593px" height="127px" viewBox="0 0 593 127" version="1.1" xmlns="http://www.w3.org/2000/svg" xmlns:xlink="http://www.w3.org/1999/xlink">
    <!-- Generator: Sketch 56.3 (81716) - https://sketch.com -->
    <title>Artboard</title>
    <desc>Created with Sketch.</desc>
    <g id="Artboard" stroke="none" stroke-width="1" fill="none" fill-rule="evenodd">
        <g id="kickstarter-logo" transform="translate(47.000000, 37.000000)" fill="#000000" fill-rule="nonzero">
            <path d="M454,13.9133333 L454,41.1266667 C454,47.6266667 459.232558,53 465.598837,53 C470.831395,53 474.930233,49.7933333 476.412791,45.2 L477.633721,47.3666667 C479.813953,51.0066667 483.651163,53 487.575582,53 C493.941861,53 499,47.9733333 499,41.56 C499,39.3933333 498.476744,37.3133333 497.255814,35.4066667 L492.72093,28.2133333 C496.034883,25.7 498.040698,21.7133333 498.040698,16.86 C498.040698,7.93333333 490.889535,1 481.732558,1 L466.645349,1 C458.447675,1 454,5.42 454,13.9133333" id="Path"></path>
            <path d="M450,43.0359533 C450,38.0545618 446.792812,34.2966699 442.372093,33.4227416 C444.36575,32.1118491 445.579281,29.9270282 445.579281,27.0430647 C445.579281,24.1591012 444.452431,21.9742803 442.372093,20.6633877 C446.879493,19.7894594 450,16.1189604 450,11.050176 C450,5.45703456 445.4926,1 440.031713,1 L421.828753,1 C413.5074,1 409,5.45703456 409,13.9341395 L409,40.064597 C409,48.6290948 413.5074,52.9987365 421.828753,52.9987365 L440.031713,52.9987365 C445.4926,53.0861293 450,48.6290948 450,43.0359533" id="Path"></path>
            <path d="M395.411321,41.3 L395.411321,23.36 C401.226415,23.1 406,18.2466667 406,12.18 C406,5.94 400.966038,1 394.803774,1 L371.196226,1 C365.033962,1 360,5.85333333 360,12.18 C360,18.2466667 364.773585,23.0133333 370.588679,23.36 L370.588679,41.3 C370.588679,47.7133333 376.056604,53 382.826415,53 C390.030189,53 395.411321,47.7133333 395.411321,41.3" id="Path"></path>
            <path d="M314,13.9133333 L314,41.1266667 C314,47.6266667 319.232558,53 325.598837,53 C330.831395,53 334.930233,49.7933333 336.412791,45.2 L337.633721,47.3666667 C339.813953,51.0066667 343.651163,53 347.575582,53 C353.941861,53 359,47.9733333 359,41.56 C359,39.3933333 358.476744,37.3133333 357.255814,35.4066667 L352.72093,28.2133333 C356.034883,25.7 358.040698,21.7133333 358.040698,16.86 C358.040698,7.93333333 350.889535,1 341.732558,1 L326.645349,1 C318.534884,1 314,5.42 314,13.9133333" id="Path"></path>
            <path d="M284.930757,42.9602649 C287.871832,49.0728477 292.023937,52 297.127565,52 C306.296797,52 312.784462,43.6490066 308.805361,34.2649006 L298.165592,9.47019866 C295.570527,3.3576159 291.677928,0 285.017259,0 C278.443093,0 274.550495,3.3576159 271.868927,9.47019866 L261.229158,34.2649006 C257.163555,43.6490066 263.737721,52 272.820451,52 C277.837577,52 281.989683,49.0728477 284.930757,42.9602649" id="Path"></path>
            <path d="M254.391305,41.3 L254.391305,23.36 C260.217391,23.1 265,18.2466667 265,12.18 C265,5.94 259.956522,1 253.782608,1 L230.217392,1 C224.043478,1 219,5.85333333 219,12.18 C219,18.2466667 223.782609,23.0133333 229.608695,23.36 L229.608695,41.3 C229.608695,47.7133333 235.086957,53 241.869565,53 C248.913043,53 254.391305,47.7133333 254.391305,41.3" id="Path"></path>
            <path d="M220,36.0888158 C220,30.8585527 217.36952,27.1973684 213.423799,23.7105263 L210.179541,20.8338816 C214.914405,20.1365131 218.070981,16.9983552 218.070981,12.3782895 C218.070981,4.62006579 211.845512,0 198.69311,0 C185.803757,0 178.263048,6.4506579 178.263048,16.649671 C178.263048,21.8799342 180.981211,25.4539473 184.926931,29.0279605 L188.083507,31.9046052 L187.995825,31.9046052 C182.121085,31.9046052 178,35.3042763 178,40.6217105 C178,48.2927631 184.488518,53 198.34238,53 C211.933194,53 220,46.462171 220,36.0888158" id="Shape-Copy-7"></path>
            <path d="M175,40.3574105 C175,37.9428645 174.297196,35.6145524 172.803739,33.5449417 L167.181308,25.8701349 L172.803739,18.1953282 C174.297196,16.2119513 175,13.7974053 175,11.3828594 C175,5.00155942 169.641122,0.0862337831 163.315888,0.0862337831 C159.626169,0.0862337831 155.936448,1.89714323 153.652336,5.00155942 L150.928972,8.79584585 C149.874766,3.70805267 145.394393,0 139.684112,0 C133.095327,0 128,5.17402699 128,11.5553269 L128,40.4436443 C128,46.8249442 133.183177,51.9989712 139.684112,51.9989712 C145.306542,51.9989712 149.699065,48.5496199 150.841122,43.5480605 L153.300935,46.9974118 C155.585047,50.2742955 159.362617,51.9989712 163.052336,51.9989712 C169.641122,52.085205 175,46.7387105 175,40.3574105" id="Path"></path>
            <path d="M124,37.7086093 C124,32.1986755 121.25536,28.3245033 115.766082,26 C121.25536,23.6754967 124,19.8874172 124,14.2913907 C124,5.94039735 117.052631,0 105.902534,0 C90.9785573,0 80,11.1059602 80,26 C80,40.8940398 90.9785573,52 105.902534,52 C117.052631,52 124,46.0596027 124,37.7086093" id="Path"></path>
            <path d="M62.5430488,0 C55.5746884,0 50,5.70099668 50,12.4385382 L50,39.5614618 C50,46.3853821 55.5746884,52 62.4559442,52 C69.5114091,52 74.998993,46.2990033 74.998993,39.5614618 L74.998993,12.4385382 C75.0860975,5.70099668 69.5114091,0 62.5430488,0" id="Path"></path>
            <path d="M47,40.3574105 C47,37.9428645 46.2985075,35.6145524 44.8078358,33.5449417 L39.1958955,25.8701349 L44.8078358,18.1953282 C46.2985075,16.2119513 47,13.7974053 47,11.3828594 C47,5.00155942 41.6511194,0.0862337831 35.3376866,0.0862337831 C31.6548508,0.0862337831 27.9720149,1.89714323 25.6921642,5.00155942 L22.886194,8.79584585 C21.8339552,3.70805267 17.3619403,0 11.6623134,0 C5.08582089,0 0,5.17402699 0,11.5553269 L0,40.4436443 C0,46.8249442 5.17350746,51.9989712 11.6623134,51.9989712 C17.2742537,51.9989712 21.6585821,48.5496199 22.7985075,43.5480605 L25.2537314,46.9974118 C27.5335821,50.2742955 31.3041045,51.9989712 34.9869403,51.9989712 C41.6511194,52.085205 47,46.7387105 47,40.3574105" id="Path"></path>
        </g>
    </g>
</svg>
